Papirus-GTK/32x32/apps/alexandra.svg

<svg height="32" viewBox="0 0 32 32" width="32" xmlns="http://www.w3.org/2000/svg"><path d="m9 2a7 7 0 0 0 -7 7 7 7 0 0 0  2.1445 5.031c-.0896.208-.1445.438-.1445.688v4.281a1 1 0 0 0 -1 1 1 1 0 0 0  1 1v4.68c0 .841.575 1.519 1.2891 1.519h4.5273l-1.6602 1.74a1.1694.70738 0 0 0 1.0137 1.061h5.3301 5.332a1.1694.70738 0 0 0 1.168-.729 1.1694.70738 0 0 0 -.156-.332l-1.66-1.74h4.527c.714 0 1.289-.678 1.289-1.519v-3.393l1.146.758 2.793 1.848a.70738.80956 0 0 0 1.061-.704v-3.689-3.691a.70738.80956 0 0 0 -.729-.809.70738.80956 0 0 0 -.332.109l-2.793 1.844-1.146.758v-3.992c0-.247-.054-.476-.143-.682a7 7 0 0 0 2.143-5.037 7 7 0 0 0 -7-7 7 7 0 0 0 -5.496 2.6777 7 7 0 0 0 -5.504-2.6777z" fill="#11ab66"/><path d="m8.5 6c-1.9271 0-3.5 1.5729-3.5 3.5 0 1.927 1.5729 3.5 3.5 3.5 1.927 0 3.5-1.573 3.5-3.5 0-1.9271-1.573-3.5-3.5-3.5zm12 0c-1.927 0-3.5 1.5729-3.5 3.5 0 1.927 1.573 3.5 3.5 3.5 1.927 0 3.5-1.573 3.5-3.5 0-1.9271-1.573-3.5-3.5-3.5zm-12 1c1.387 0 2.5 1.1134 2.5 2.5 0 1.387-1.113 2.5-2.5 2.5-1.3866 0-2.5-1.113-2.5-2.5 0-1.3866 1.1134-2.5 2.5-2.5zm12 0c1.387 0 2.5 1.1134 2.5 2.5 0 1.387-1.113 2.5-2.5 2.5-1.387 0-2.5-1.113-2.5-2.5 0-1.3866 1.113-2.5 2.5-2.5z" opacity=".2"/><path d="m8.5 5c-1.9271 0-3.5 1.5729-3.5 3.5 0 1.927 1.5729 3.5 3.5 3.5 1.927 0 3.5-1.573 3.5-3.5 0-1.9271-1.573-3.5-3.5-3.5zm12 0c-1.927 0-3.5 1.5729-3.5 3.5 0 1.927 1.573 3.5 3.5 3.5 1.927 0 3.5-1.573 3.5-3.5 0-1.9271-1.573-3.5-3.5-3.5zm-12 1c1.387 0 2.5 1.1134 2.5 2.5 0 1.387-1.113 2.5-2.5 2.5-1.3866 0-2.5-1.113-2.5-2.5 0-1.3866 1.1134-2.5 2.5-2.5zm12 0c1.387 0 2.5 1.1134 2.5 2.5 0 1.387-1.113 2.5-2.5 2.5-1.387 0-2.5-1.113-2.5-2.5 0-1.3866 1.113-2.5 2.5-2.5z" fill="#fff"/><path d="m9 2a7 7 0 0 0 -7 7 7 7 0 0 0  .0234375.4589844 7 7 0 0 1  6.9765625-6.4589844 7 7 0 0 1  5.503906 2.6777344 7 7 0 0 1  5.496094-2.6777344 7 7 0 0 1  6.974609 6.4980469 7 7 0 0 0  .025391-.4980469 7 7 0 0 0 -7-7 7 7 0 0 0 -5.496094 2.6777344 7 7 0 0 0 -5.503906-2.6777344zm-5 12.876953v.841797c0-.25.0549313-.4795.1445312-.6875a7 7 0 0 1 -.1445312-.154297zm21 .007813a7 7 0 0 1 -.142578.152343c.089.206.142578.434641.142578.681641zm4.271484 1.115234a.70738.80956 0 0 0 -.332031.109375l-2.792969 1.84375-1.146484.757813v1l1.146484-.757813 2.792969-1.84375a.70738.80956 0 0 1  .332031-.109375.70738.80956 0 0 1  .728516.808594v-1a .70738.80956 0 0 0 -.728516-.808594zm-25.271484 3a1 1 0 0 0 -1 1 1 1 0 0 0  .1347656.5 1 1 0 0 1  .8652344-.5zm4.8632812 9.199219l-.7070312.740234a1.1694.70738 0 0 0  .15625.835938l1.5039062-1.576172zm10.3203128 0l1.501953 1.574219a1.1694.70738 0 0 0  .314453-.501954 1.1694.70738 0 0 0 -.15625-.332031l-.707031-.740234z" fill="#fff" opacity=".2"/><path d="m2.0234375 8.4589844a7 7 0 0 0 -.0234375.5410156 7 7 0 0 0  2 4.876953v-.158203c0-.25.0549313-.4795.1445312-.6875a7 7 0 0 1 -2.1210937-4.5722656zm24.9511715.0390625a7 7 0 0 1 -2.117187 4.5390621c.089.206.142578.434641.142578.681641v.166016a7 7 0 0 0 2-4.884766 7 7 0 0 0 -.025391-.5019531zm-23.8398434 11.0019531a1 1 0 0 0 -.1347656.5 1 1 0 0 0  1 1v-1a1 1 0 0 1 -.8652344-.5zm21.8652344 1.787109v1l1.146484.757813 2.792969 1.847656a.70738.80956 0 0 0 1.060547-.703125v-1a .70738.80956 0 0 1 -1.060547.703125l-2.792969-1.847656zm-21 3.392579v1c0 .841.5749625 1.519531 1.2890625 1.519531h3.5742187l.953125-1h-4.5273437c-.7141 0-1.2890625-.678531-1.2890625-1.519531zm21 0c0 .841-.575063 1.519531-1.289062 1.519531h-4.527344l.953125 1h3.574219c.713999 0 1.289062-.678531 1.289062-1.519531zm-4.314453 4.09375a1.1694.70738 0 0 1 -.853516.226562h-5.332031-5.3300781a1.1694.70738 0 0 1 -.8574219-.224609l-.15625.164062a1.1694.70738 0 0 0 1.0136719 1.060547h5.3300781 5.332031a1.1694.70738 0 0 0 1.167969-.728516 1.1694.70738 0 0 0 -.15625-.332031z" opacity=".3"/></svg>

<?xml version="1.0" encoding="UTF-8" standalone="no"?>
<!-- Created with Inkscape (http://www.inkscape.org/) -->

<svg
   xmlns:dc="http://purl.org/dc/elements/1.1/"
   xmlns:cc="http://creativecommons.org/ns#"
   xmlns:rdf="http://www.w3.org/1999/02/22-rdf-syntax-ns#"
   xmlns:svg="http://www.w3.org/2000/svg"
   xmlns="http://www.w3.org/2000/svg"
   xmlns:sodipodi="http://sodipodi.sourceforge.net/DTD/sodipodi-0.dtd"
   xmlns:inkscape="http://www.inkscape.org/namespaces/inkscape"
   id="svg2"
   height="32"
   viewBox="0 0 32 32"
   width="32"
   version="1.1"
   inkscape:version="0.91 r13725"
   sodipodi:docname="alexandra.svg">
  <defs
     id="defs9" />
  <sodipodi:namedview
     pagecolor="#ffffff"
     bordercolor="#666666"
     borderopacity="1"
     objecttolerance="10"
     gridtolerance="10"
     guidetolerance="10"
     inkscape:pageopacity="0"
     inkscape:pageshadow="2"
     inkscape:window-width="1600"
     inkscape:window-height="849"
     id="namedview7"
     showgrid="false"
     inkscape:zoom="12.239653"
     inkscape:cx="16"
     inkscape:cy="16"
     inkscape:window-x="0"
     inkscape:window-y="0"
     inkscape:window-maximized="1"
     inkscape:current-layer="svg2" />
  <metadata
     id="metadata8">
    <rdf:RDF>
      <cc:Work
         rdf:about="">
        <dc:format>image/svg+xml</dc:format>
        <dc:type
           rdf:resource="http://purl.org/dc/dcmitype/StillImage" />
        <dc:title />
      </cc:Work>
    </rdf:RDF>
  </metadata>
  <path
     d="M 9,2 A 7,7 0 0 0 2,9 7,7 0 0 0 4.1445,14.031 C 4.0549,14.239 4,14.469 4,14.719 L 4,19 a 1,1 0 0 0 -1,1 1,1 0 0 0 1,1 l 0,4.68 c 0,0.841 0.575,1.519 1.2891,1.519 l 4.5273,0 -1.6602,1.74 A 1.1694,0.70738 0 0 0 9.1699,30 l 5.3301,0 5.332,0 A 1.1694,0.70738 0 0 0 21,29.271 1.1694,0.70738 0 0 0 20.844,28.939 l -1.66,-1.74 4.527,0 C 24.425,27.199 25,26.521 25,25.68 l 0,-3.393 1.146,0.758 2.793,1.848 A 0.70738,0.80956 0 0 0 30,24.189 L 30,20.5 30,16.809 A 0.70738,0.80956 0 0 0 29.271,16 0.70738,0.80956 0 0 0 28.939,16.109 L 26.146,17.953 25,18.711 25,14.719 c 0,-0.247 -0.054,-0.476 -0.143,-0.682 A 7,7 0 0 0 27,9 7,7 0 0 0 20,2 7,7 0 0 0 14.504,4.6777 7,7 0 0 0 9,2 Z"
     id="path4145"
     style="fill:#11ab66;fill-opacity:1" />
  <path
     id="path4163"
     d="M 8.5,6 C 6.5729,6 5,7.5729 5,9.5 5,11.427 6.5729,13 8.5,13 10.427,13 12,11.427 12,9.5 12,7.5729 10.427,6 8.5,6 Z m 12,0 C 18.573,6 17,7.5729 17,9.5 17,11.427 18.573,13 20.5,13 22.427,13 24,11.427 24,9.5 24,7.5729 22.427,6 20.5,6 Z M 8.5,7 C 9.887,7 11,8.1134 11,9.5 11,10.887 9.887,12 8.5,12 7.1134,12 6,10.887 6,9.5 6,8.1134 7.1134,7 8.5,7 Z m 12,0 C 21.887,7 23,8.1134 23,9.5 23,10.887 21.887,12 20.5,12 19.113,12 18,10.887 18,9.5 18,8.1134 19.113,7 20.5,7 Z"
     style="opacity:0.2;fill:#000000;fill-opacity:1"
     inkscape:connector-curvature="0" />
  <path
     style="fill:#ffffff;fill-opacity:1"
     d="M 8.5 5 C 6.5729 5 5 6.5729 5 8.5 C 5 10.427 6.5729 12 8.5 12 C 10.427 12 12 10.427 12 8.5 C 12 6.5729 10.427 5 8.5 5 z M 20.5 5 C 18.573 5 17 6.5729 17 8.5 C 17 10.427 18.573 12 20.5 12 C 22.427 12 24 10.427 24 8.5 C 24 6.5729 22.427 5 20.5 5 z M 8.5 6 C 9.887 6 11 7.1134 11 8.5 C 11 9.887 9.887 11 8.5 11 C 7.1134 11 6 9.887 6 8.5 C 6 7.1134 7.1134 6 8.5 6 z M 20.5 6 C 21.887 6 23 7.1134 23 8.5 C 23 9.887 21.887 11 20.5 11 C 19.113 11 18 9.887 18 8.5 C 18 7.1134 19.113 6 20.5 6 z "
     id="path4158" />
  <path
     style="fill:#ffffff;fill-opacity:1;opacity:0.2"
     d="M 9 2 A 7 7 0 0 0 2 9 A 7 7 0 0 0 2.0234375 9.4589844 A 7 7 0 0 1 9 3 A 7 7 0 0 1 14.503906 5.6777344 A 7 7 0 0 1 20 3 A 7 7 0 0 1 26.974609 9.4980469 A 7 7 0 0 0 27 9 A 7 7 0 0 0 20 2 A 7 7 0 0 0 14.503906 4.6777344 A 7 7 0 0 0 9 2 z M 4 14.876953 L 4 15.71875 C 4 15.46875 4.0549313 15.23925 4.1445312 15.03125 A 7 7 0 0 1 4 14.876953 z M 25 14.884766 A 7 7 0 0 1 24.857422 15.037109 C 24.946422 15.243109 25 15.47175 25 15.71875 L 25 14.884766 z M 29.271484 16 A 0.70738 0.80956 0 0 0 28.939453 16.109375 L 26.146484 17.953125 L 25 18.710938 L 25 19.710938 L 26.146484 18.953125 L 28.939453 17.109375 A 0.70738 0.80956 0 0 1 29.271484 17 A 0.70738 0.80956 0 0 1 30 17.808594 L 30 16.808594 A 0.70738 0.80956 0 0 0 29.271484 16 z M 4 19 A 1 1 0 0 0 3 20 A 1 1 0 0 0 3.1347656 20.5 A 1 1 0 0 1 4 20 L 4 19 z M 8.8632812 28.199219 L 8.15625 28.939453 A 1.1694 0.70738 0 0 0 8.3125 29.775391 L 9.8164062 28.199219 L 8.8632812 28.199219 z M 19.183594 28.199219 L 20.685547 29.773438 A 1.1694 0.70738 0 0 0 21 29.271484 A 1.1694 0.70738 0 0 0 20.84375 28.939453 L 20.136719 28.199219 L 19.183594 28.199219 z "
     id="path4165" />
  <path
     style="fill:#000000;fill-opacity:1;opacity:0.3"
     d="M 2.0234375 8.4589844 A 7 7 0 0 0 2 9 A 7 7 0 0 0 4 13.876953 L 4 13.71875 C 4 13.46875 4.0549313 13.23925 4.1445312 13.03125 A 7 7 0 0 1 2.0234375 8.4589844 z M 26.974609 8.4980469 A 7 7 0 0 1 24.857422 13.037109 C 24.946422 13.243109 25 13.47175 25 13.71875 L 25 13.884766 A 7 7 0 0 0 27 9 A 7 7 0 0 0 26.974609 8.4980469 z M 3.1347656 19.5 A 1 1 0 0 0 3 20 A 1 1 0 0 0 4 21 L 4 20 A 1 1 0 0 1 3.1347656 19.5 z M 25 21.287109 L 25 22.287109 L 26.146484 23.044922 L 28.939453 24.892578 A 0.70738 0.80956 0 0 0 30 24.189453 L 30 23.189453 A 0.70738 0.80956 0 0 1 28.939453 23.892578 L 26.146484 22.044922 L 25 21.287109 z M 4 24.679688 L 4 25.679688 C 4 26.520688 4.5749625 27.199219 5.2890625 27.199219 L 8.8632812 27.199219 L 9.8164062 26.199219 L 5.2890625 26.199219 C 4.5749625 26.199219 4 25.520688 4 24.679688 z M 25 24.679688 C 25 25.520688 24.424937 26.199219 23.710938 26.199219 L 19.183594 26.199219 L 20.136719 27.199219 L 23.710938 27.199219 C 24.424937 27.199219 25 26.520688 25 25.679688 L 25 24.679688 z M 20.685547 28.773438 A 1.1694 0.70738 0 0 1 19.832031 29 L 14.5 29 L 9.1699219 29 A 1.1694 0.70738 0 0 1 8.3125 28.775391 L 8.15625 28.939453 A 1.1694 0.70738 0 0 0 9.1699219 30 L 14.5 30 L 19.832031 30 A 1.1694 0.70738 0 0 0 21 29.271484 A 1.1694 0.70738 0 0 0 20.84375 28.939453 L 20.685547 28.773438 z "
     id="path4170" />
</svg>
